assets/Construction/Flat/construction_flat.svg

<svg width="32" height="32" viewBox="0 0 32 32" fill="none" xmlns="http://www.w3.org/2000/svg">
<path d="M8 20H6V30H8V20ZM26 20H24V30H26V20Z" fill="#D3D3D3"/>
<path d="M3 12L7 8H12.52L14.5 9L17.46 8H22.52L24 9L27.48 8H28C28.5523 8 29 8.44772 29 9V11.52L28.5 14.5L29 16.48V20C29 20.5523 28.5523 21 28 21H24.48L22 20.5L19.52 21H14.48L12.5 20L9.52 21H4.49L4 18.5L3 17.5258V12Z" fill="#FCD53F"/>
<path d="M7.47476 8H4C3.44772 8 3 8.44772 3 9V12.4748L7.47476 8ZM4.47476 21H4C3.44772 21 3 20.5523 3 20V17.525L12.525 8H17.4748L4.47476 21ZM14.4748 21H9.52502L22.525 8H27.4748L14.4748 21ZM24.4748 21H19.525L29 11.525V16.4748L24.4748 21Z" fill="#533566"/>
<path d="M7.5 6C6.67157 6 6 6.67157 6 7.5V8H9V7.5C9 6.67157 8.32843 6 7.5 6ZM24.5 6C23.6716 6 23 6.67157 23 7.5V8H26V7.5C26 6.67157 25.3284 6 24.5 6Z" fill="#F8312F"/>
</svg>

<svg xmlns="http://www.w3.org/2000/svg" width="32" height="32" fill="none"><path fill="#D3D3D3" d="M8 20H6v10h2V20Zm18 0h-2v10h2V20Z"/><path fill="#FCD53F" d="m3 12 4-4h5.52l1.98 1 2.96-1h5.06L24 9l3.48-1H28a1 1 0 0 1 1 1v2.52l-.5 2.98.5 1.98V20a1 1 0 0 1-1 1h-3.52L22 20.5l-2.48.5h-5.04l-1.98-1-2.98 1H4.49L4 18.5l-1-.974V12Z"/><path fill="#533566" d="M7.475 8H4a1 1 0 0 0-1 1v3.475L7.475 8Zm-3 13H4a1 1 0 0 1-1-1v-2.475L12.525 8h4.95l-13 13Zm10 0h-4.95l13-13h4.95l-13 13Zm10 0h-4.95L29 11.525v4.95L24.475 21Z"/><path fill="#F8312F" d="M7.5 6A1.5 1.5 0 0 0 6 7.5V8h3v-.5A1.5 1.5 0 0 0 7.5 6Zm17 0A1.5 1.5 0 0 0 23 7.5V8h3v-.5A1.5 1.5 0 0 0 24.5 6Z"/></svg>
